assets/img/braze_icons/marker-pin-03.svg

<svg fill="none" height="24" viewBox="0 0 24 24" width="24" xmlns="http://www.w3.org/2000/svg"><path clip-rule="evenodd" d="m3 10c0-4.97056 4.02944-9 9-9 4.9706 0 9 4.02944 9 9 0 3.6785-2.0607 5.6862-3.9824 7.298-.2031.1704-.4023.3353-.5968.4963-1.7203 1.4239-3.0677 2.5392-3.4402 4.4018-.0935.4674-.5039.8039-.9806.8039s-.8871-.3365-.9806-.8039c-.3725-1.8626-1.71993-2.9779-3.44025-4.4018-.19446-.161-.39368-.3259-.59679-.4963-1.92167-1.6118-3.98236-3.6195-3.98236-7.298zm12 0c0 1.6569-1.3431 3-3 3s-3-1.3431-3-3c0-1.65685 1.3431-3 3-3s3 1.34315 3 3z" fill="#801ed7" fill-rule="evenodd"/></svg>

<svg width="24" height="24" viewBox="0 0 24 24" fill="none" xmlns="http://www.w3.org/2000/svg">
<path fill-rule="evenodd" clip-rule="evenodd" d="M3 10C3 5.02944 7.02944 1 12 1C16.9706 1 21 5.02944 21 10C21 13.6785 18.9393 15.6862 17.0176 17.298C16.8145 17.4684 16.6153 17.6333 16.4208 17.7943C14.7005 19.2182 13.3531 20.3335 12.9806 22.1961C12.8871 22.6635 12.4767 23 12 23C11.5233 23 11.1129 22.6635 11.0194 22.1961C10.6469 20.3335 9.29947 19.2182 7.57915 17.7943C7.38469 17.6333 7.18547 17.4684 6.98236 17.298C5.06069 15.6862 3 13.6785 3 10ZM15 10C15 11.6569 13.6569 13 12 13C10.3431 13 9 11.6569 9 10C9 8.34315 10.3431 7 12 7C13.6569 7 15 8.34315 15 10Z" fill="#801ED7"/>
</svg>
